src/assets/images/fact_widget.svg

<svg height="100" viewBox="0 0 150 100" width="150" xmlns="http://www.w3.org/2000/svg"><g fill="#ff6b6b" fill-rule="evenodd"><path d="m42.9865 70h5.187v-1.534h-3.315v-7.748h-1.872zm7.527-3.497c0 .3553351.0086666.6846652.026.988s.0584997.5633323.1235.78.1624993.3856661.2925.507c.1300006.1213339.3033322.182.52.182.3640018 0 .6153326-.1906648.754-.572s.208-1.0096623.208-1.885-.0693326-1.5036648-.208-1.885-.3899982-.572-.754-.572c-.2166678 0-.3899994.0606661-.52.182-.1300007.1213339-.2274997.2903323-.2925.507s-.1061666.4766652-.1235.78-.026.6326649-.026.988zm-1.794 0c0-.598003.0476662-1.1266644.143-1.586s.2513322-.8428318.468-1.1505c.2166677-.3076682.5004982-.5416659.8515-.702s.7821641-.2405 1.2935-.2405c.537336-.0086667.9836649.0628326 1.339.2145s.636999.3834984.845.6955.3553329.6976644.442 1.157.13.9966636.13 1.612c0 .598003-.0476662 1.1266644-.143 1.586s-.2513323.8428318-.468 1.1505c-.2166678.3076682-.5004982.5351659-.8515.6825s-.7821641.221-1.2935.221c-.537336.0086667-.9836649-.0584993-1.339-.2015s-.636999-.3683318-.845-.676-.3553329-.693331-.442-1.157-.13-.9988303-.13-1.6055zm6.474-3.497v6.994h1.794v-4.199c0-.2340012.0389996-.4311659.117-.5915s.1819993-.2903328.312-.39c.1300006-.0996672.2729992-.1711664.429-.2145.1560008-.0433335.3119992-.065.468-.065.0953338 0 .1884995.0021666.2795.0065s.1841662.0108333.2795.0195v-1.716c-.0520003-.0086667-.1061664-.0151666-.1625-.0195s-.1104997-.0065-.1625-.0065c-.3726685 0-.6889987.1018323-.949.3055s-.4809991.4744983-.663.8125h-.026v-.936zm7.696 2.704c-.0086667-.268668-.0259999-.5048323-.052-.7085s-.0714997-.3769993-.1365-.52-.1559994-.251333-.273-.325-.2664991-.1105-.4485-.1105-.3314994.0411663-.4485.1235-.2101663.190666-.2795.325-.1191665.2838325-.1495.4485-.0455.3293325-.0455.494v.273zm-1.833 1.066v.559c0 .208001.0151665.409499.0455.6045s.0801663.3683326.1495.52.1603328.2729995.273.364.2513325.1365.416.1365c.3033348 0 .5243326-.1083322.663-.325s.2339997-.5459978.286-.988h1.612c-.0346668.8146707-.2513313 1.4343312-.65 1.859s-1.0269957.637-1.885.637c-.6500033 0-1.1569982-.1083323-1.521-.325-.3640018-.2166678-.6326658-.5026649-.806-.858s-.2794998-.7539978-.3185-1.196-.0585-.8839978-.0585-1.326c0-.4680023.0324997-.9186645.0975-1.352s.194999-.8189983.39-1.157.4744982-.6066657.8385-.806.8493303-.299 1.456-.299c.5200026 0 .9468317.0844992 1.2805.2535s.5958324.4073318.7865.715.3206663.6803311.39 1.118.104.925164.104 1.4625v.403zm4.485-3.77v6.994h1.794v-4.602c0-.4160021.0844992-.7193324.2535-.91s.3964986-.286.6825-.286c.2513346 0 .4311661.0779992.5395.234s.1625.3813319.1625.676v4.888h1.794v-4.602c0-.4160021.0844992-.7193324.2535-.91s.3964986-.286.6825-.286c.2513346 0 .4311661.0779992.5395.234s.1625.3813319.1625.676v4.888h1.794v-5.083c0-.6760034-.1408319-1.1938315-.4225-1.5535s-.721497-.5395-1.3195-.5395c-.4246688 0-.7908318.0931657-1.0985.2795s-.5308326.4658315-.6695.8385h-.026c-.0953338-.3640018-.2838319-.6413324-.5655-.832s-.6304979-.286-1.0465-.286c-.390002 0-.7258319.0693326-1.0075.208s-.5351655.3683317-.7605.689h-.026v-.715zm13.039-2.392v1.534h1.794v-1.534zm0 2.392v6.994h1.794v-6.994zm3.055 0h1.716v.741h.026c.1993343-.329335.4224988-.5654993.6695-.7085s.5524982-.2145.9165-.2145c.7366703 0 1.2783316.2881638 1.625.8645s.52 1.5144935.52 2.8145-.1733316 2.2316639-.52 2.795-.8883297.845-1.625.845c-.3380017 0-.6261655-.0628327-.8645-.1885s-.4528324-.3271653-.6435-.6045h-.026v2.899h-1.794zm1.794 3.497c0 .7626705.0584994 1.3368314.1755 1.7225s.3748313.5785.7735.5785c.3900019 0 .6434994-.1928314.7605-.5785s.1755-.9598295.1755-1.7225-.0584994-1.3368314-.1755-1.7225-.3704981-.5785-.7605-.5785c-.3986687 0-.6564994.1928314-.7735.5785s-.1755.9598295-.1755 1.7225zm6.019 1.209h-1.612v.247c0 .3380017.0389996.6434986.117.9165s.214499.5048324.4095.6955.4593317.3336662.793.429.7518308.143 1.2545.143c.3813352 0 .7301651-.0389996 1.0465-.117s.5893322-.2079991.819-.39.4094993-.4094986.5395-.6825c.1300006-.2730014.195-.5958315.195-.9685 0-.5286693-.1169988-.9468318-.351-1.2545s-.6326639-.5568324-1.196-.7475l-1.079-.364c-.3033349-.0953338-.5091661-.2123326-.6175-.351s-.1625-.2946658-.1625-.468c0-.2513346.0844992-.4398327.2535-.5655s.3661655-.1885.5915-.1885c.2946681 0 .5004994.0844992.6175.2535s.1755.4354982.1755.7995h1.612v-.286c0-.6326698-.1949981-1.1223316-.585-1.469-.390002-.3466684-.9923293-.52-1.807-.52-.4593356 0-.8514984.0563328-1.1765.169s-.591499.2643324-.7995.455-.3596662.4138321-.455.6695-.143.5264986-.143.8125c0 .4940025.1256654.8991651.377 1.2155s.6239975.5611658 1.118.7345l1.261.455c.1733342.0693337.3249993.1624994.455.2795.1300006.1170006.195.2881655.195.5135 0 .2773347-.0823325.4853326-.247.624s-.3856653.208-.663.208c-.3033349 0-.5351659-.0931657-.6955-.2795s-.2405-.4311652-.2405-.7345zm8.047 1.469v.819h1.716v-6.994h-1.794v4.641c0 .7713372-.3163302 1.157-.949 1.157-.268668 0-.4636661-.0714993-.585-.2145s-.182-.3964982-.182-.7605v-4.823h-1.794v5.187c0 .7020035.1538318 1.2024985.4615 1.5015s.7474971.4485 1.3195.4485c.3900019 0 .7366651-.0736659 1.04-.221.3033348-.1473341.5503324-.3943316.741-.741zm2.912-6.175v6.994h1.794v-4.602c0-.4160021.084499-.7193324.2535-.91s.396499-.286.6825-.286c.251335 0 .431166.0779992.5395.234s.1625.3813319.1625.676v4.888h1.794v-4.602c0-.4160021.084499-.7193324.2535-.91s.396499-.286.6825-.286c.251335 0 .431166.0779992.5395.234s.1625.3813319.1625.676v4.888h1.794v-5.083c0-.6760034-.140832-1.1938315-.4225-1.5535s-.721497-.5395-1.3195-.5395c-.424669 0-.790832.0931657-1.0985.2795s-.530833.4658315-.6695.8385h-.026c-.095334-.3640018-.283832-.6413324-.5655-.832s-.630498-.286-1.0465-.286c-.390002 0-.725832.0693326-1.0075.208s-.535166.3683317-.7605.689h-.026v-.715z"/><path d="m62.916 49h5.472v-26.904h-4.028c-.2786681 1.5200076-.9436614 2.6219966-1.995 3.306s-2.4889909 1.026-4.313 1.026h-.494v3.572h5.358zm28.576 0v-4.256h-10.146c.1266673-.5066692.4179977-1.1083299.874-1.805s1.0893293-1.4123297 1.9-2.147l3.04-2.812c.7600038-.6840034 1.4059973-1.3489968 1.938-1.995s.962665-1.3109966 1.292-1.995.5699992-1.3996629.722-2.147.228-1.5516624.228-2.413c0-2.3560118-.6586601-4.167327-1.976-5.434s-3.3439863-1.9-6.08-1.9c-2.8880144 0-5.0033266.6713266-6.346 2.014s-2.014 3.2679875-2.014 5.776v1.026h5.244c0-.7093369.0316664-1.3806635.095-2.014s.2026656-1.1906643.418-1.672.5193314-.8613319.912-1.14.9309966-.418 1.615-.418c1.7733422 0 2.66 1.1146555 2.66 3.344 0 .6840034-.0316663 1.2919973-.095 1.824s-.1963323 1.0259977-.399 1.482-.4876648.9119977-.855 1.368-.854997.9499973-1.463 1.482l-2.204 2.052c-.9880049.9120046-1.8556629 1.8176622-2.603 2.717s-1.3679975 1.817662-1.862 2.755-.8613321 1.9253281-1.102 2.964-.361 2.1533274-.361 3.344z"/></g></svg>

<?xml version="1.0" encoding="UTF-8"?>
<svg width="150px" height="100px" viewBox="0 0 150 100" version="1.1" xmlns="http://www.w3.org/2000/svg" xmlns:xlink="http://www.w3.org/1999/xlink">
    <!-- Generator: Sketch 47.1 (45422) - http://www.bohemiancoding.com/sketch -->
    <title>fact</title>
    <desc>Created with Sketch.</desc>
    <defs></defs>
    <g id="Page-1" stroke="none" stroke-width="1" fill="none" fill-rule="evenodd">
        <g id="fact" fill="#FF6B6B">
            <path d="M42.9865,70 L48.1735,70 L48.1735,68.466 L44.8585,68.466 L44.8585,60.718 L42.9865,60.718 L42.9865,70 Z M50.5135,66.503 C50.5135,66.8583351 50.5221666,67.1876652 50.5395,67.491 C50.5568334,67.7943348 50.5979997,68.0543323 50.663,68.271 C50.7280003,68.4876677 50.8254993,68.6566661 50.9555,68.778 C51.0855006,68.8993339 51.2588322,68.96 51.4755,68.96 C51.8395018,68.96 52.0908326,68.7693352 52.2295,68.388 C52.3681674,68.0066648 52.4375,67.3783377 52.4375,66.503 C52.4375,65.6276623 52.3681674,64.9993352 52.2295,64.618 C52.0908326,64.2366648 51.8395018,64.046 51.4755,64.046 C51.2588322,64.046 51.0855006,64.1066661 50.9555,64.228 C50.8254993,64.3493339 50.7280003,64.5183323 50.663,64.735 C50.5979997,64.9516677 50.5568334,65.2116652 50.5395,65.515 C50.5221666,65.8183348 50.5135,66.1476649 50.5135,66.503 Z M48.7195,66.503 C48.7195,65.904997 48.7671662,65.3763356 48.8625,64.917 C48.9578338,64.4576644 49.1138322,64.0741682 49.3305,63.7665 C49.5471677,63.4588318 49.8309982,63.2248341 50.182,63.0645 C50.5330018,62.9041659 50.9641641,62.824 51.4755,62.824 C52.012836,62.8153333 52.4591649,62.8868326 52.8145,63.0385 C53.1698351,63.1901674 53.451499,63.4219984 53.6595,63.734 C53.867501,64.0460016 54.0148329,64.4316644 54.1015,64.891 C54.1881671,65.3503356 54.2315,65.8876636 54.2315,66.503 C54.2315,67.101003 54.1838338,67.6296644 54.0885,68.089 C53.9931662,68.5483356 53.8371677,68.9318318 53.6205,69.2395 C53.4038322,69.5471682 53.1200018,69.7746659 52.769,69.922 C52.4179982,70.0693341 51.9868359,70.143 51.4755,70.143 C50.938164,70.1516667 50.4918351,70.0845007 50.1365,69.9415 C49.7811649,69.7984993 49.499501,69.5731682 49.2915,69.2655 C49.083499,68.9578318 48.9361671,68.572169 48.8495,68.1085 C48.7628329,67.644831 48.7195,67.1096697 48.7195,66.503 Z M55.1935,63.006 L55.1935,70 L56.9875,70 L56.9875,65.801 C56.9875,65.5669988 57.0264996,65.3698341 57.1045,65.2095 C57.1825004,65.0491659 57.2864993,64.9191672 57.4165,64.8195 C57.5465006,64.7198328 57.6894992,64.6483336 57.8455,64.605 C58.0015008,64.5616665 58.1574992,64.54 58.3135,64.54 C58.4088338,64.54 58.5019995,64.5421666 58.593,64.5465 C58.6840005,64.5508334 58.7771662,64.5573333 58.8725,64.566 L58.8725,62.85 C58.8204997,62.8413333 58.7663336,62.8348334 58.71,62.8305 C58.6536664,62.8261666 58.5995003,62.824 58.5475,62.824 C58.1748315,62.824 57.8585013,62.9258323 57.5985,63.1295 C57.3384987,63.3331677 57.1175009,63.6039983 56.9355,63.942 L56.9095,63.942 L56.9095,63.006 L55.1935,63.006 Z M62.8895,65.71 C62.8808333,65.441332 62.8635001,65.2051677 62.8375,65.0015 C62.8114999,64.7978323 62.7660003,64.6245007 62.701,64.4815 C62.6359997,64.3384993 62.5450006,64.230167 62.428,64.1565 C62.3109994,64.082833 62.1615009,64.046 61.9795,64.046 C61.7974991,64.046 61.6480006,64.0871663 61.531,64.1695 C61.4139994,64.2518337 61.3208337,64.360166 61.2515,64.4945 C61.1821663,64.628834 61.1323335,64.7783325 61.102,64.943 C61.0716665,65.1076675 61.0565,65.2723325 61.0565,65.437 L61.0565,65.71 L62.8895,65.71 Z M61.0565,66.776 L61.0565,67.335 C61.0565,67.543001 61.0716665,67.744499 61.102,67.9395 C61.1323335,68.134501 61.1821663,68.3078326 61.2515,68.4595 C61.3208337,68.6111674 61.4118328,68.7324995 61.5245,68.8235 C61.6371672,68.9145005 61.7758325,68.96 61.9405,68.96 C62.2438348,68.96 62.4648326,68.8516678 62.6035,68.635 C62.7421674,68.4183322 62.8374997,68.0890022 62.8895,67.647 L64.5015,67.647 C64.4668332,68.4616707 64.2501687,69.0813312 63.8515,69.506 C63.4528313,69.9306688 62.8245043,70.143 61.9665,70.143 C61.3164967,70.143 60.8095018,70.0346677 60.4455,69.818 C60.0814982,69.6013322 59.8128342,69.3153351 59.6395,68.96 C59.4661658,68.6046649 59.3600002,68.2060022 59.321,67.764 C59.2819998,67.3219978 59.2625,66.8800022 59.2625,66.438 C59.2625,65.9699977 59.2949997,65.5193355 59.36,65.086 C59.4250003,64.6526645 59.554999,64.2670017 59.75,63.929 C59.945001,63.5909983 60.2244982,63.3223343 60.5885,63.123 C60.9525018,62.9236657 61.4378303,62.824 62.0445,62.824 C62.5645026,62.824 62.9913317,62.9084992 63.325,63.0775 C63.6586683,63.2465008 63.9208324,63.4848318 64.1115,63.7925 C64.3021676,64.1001682 64.4321663,64.4728311 64.5015,64.9105 C64.5708337,65.3481689 64.6055,65.835664 64.6055,66.373 L64.6055,66.776 L61.0565,66.776 Z M65.5415,63.006 L65.5415,70 L67.3355,70 L67.3355,65.398 C67.3355,64.9819979 67.4199992,64.6786676 67.589,64.488 C67.7580008,64.2973324 67.9854986,64.202 68.2715,64.202 C68.5228346,64.202 68.7026661,64.2799992 68.811,64.436 C68.9193339,64.5920008 68.9735,64.8173319 68.9735,65.112 L68.9735,70 L70.7675,70 L70.7675,65.398 C70.7675,64.9819979 70.8519992,64.6786676 71.021,64.488 C71.1900008,64.2973324 71.4174986,64.202 71.7035,64.202 C71.9548346,64.202 72.1346661,64.2799992 72.243,64.436 C72.3513339,64.5920008 72.4055,64.8173319 72.4055,65.112 L72.4055,70 L74.1995,70 L74.1995,64.917 C74.1995,64.2409966 74.0586681,63.7231685 73.777,63.3635 C73.4953319,63.0038315 73.055503,62.824 72.4575,62.824 C72.0328312,62.824 71.6666682,62.9171657 71.359,63.1035 C71.0513318,63.2898343 70.8281674,63.5693315 70.6895,63.942 L70.6635,63.942 C70.5681662,63.5779982 70.3796681,63.3006676 70.098,63.11 C69.8163319,62.9193324 69.4675021,62.824 69.0515,62.824 C68.661498,62.824 68.3256681,62.8933326 68.044,63.032 C67.7623319,63.1706674 67.5088345,63.4003317 67.2835,63.721 L67.2575,63.721 L67.2575,63.006 L65.5415,63.006 Z M78.5805,60.614 L78.5805,62.148 L80.3745,62.148 L80.3745,60.614 L78.5805,60.614 Z M78.5805,63.006 L78.5805,70 L80.3745,70 L80.3745,63.006 L78.5805,63.006 Z M81.6355,63.006 L83.3515,63.006 L83.3515,63.747 L83.3775,63.747 C83.5768343,63.417665 83.7999988,63.1815007 84.047,63.0385 C84.2940012,62.8954993 84.5994982,62.824 84.9635,62.824 C85.7001703,62.824 86.2418316,63.1121638 86.5885,63.6885 C86.9351684,64.2648362 87.1085,65.2029935 87.1085,66.503 C87.1085,67.8030065 86.9351684,68.7346639 86.5885,69.298 C86.2418316,69.8613361 85.7001703,70.143 84.9635,70.143 C84.6254983,70.143 84.3373345,70.0801673 84.099,69.9545 C83.8606655,69.8288327 83.6461676,69.6273347 83.4555,69.35 L83.4295,69.35 L83.4295,72.249 L81.6355,72.249 L81.6355,63.006 Z M83.4295,66.503 C83.4295,67.2656705 83.4879994,67.8398314 83.605,68.2255 C83.7220006,68.6111686 83.9798313,68.804 84.3785,68.804 C84.7685019,68.804 85.0219994,68.6111686 85.139,68.2255 C85.2560006,67.8398314 85.3145,67.2656705 85.3145,66.503 C85.3145,65.7403295 85.2560006,65.1661686 85.139,64.7805 C85.0219994,64.3948314 84.7685019,64.202 84.3785,64.202 C83.9798313,64.202 83.7220006,64.3948314 83.605,64.7805 C83.4879994,65.1661686 83.4295,65.7403295 83.4295,66.503 Z M89.4485,67.712 L87.8365,67.712 L87.8365,67.959 C87.8365,68.2970017 87.8754996,68.6024986 87.9535,68.8755 C88.0315004,69.1485014 88.167999,69.3803324 88.363,69.571 C88.558001,69.7616676 88.8223317,69.9046662 89.156,70 C89.4896683,70.0953338 89.9078308,70.143 90.4105,70.143 C90.7918352,70.143 91.1406651,70.1040004 91.457,70.026 C91.7733349,69.9479996 92.0463322,69.8180009 92.276,69.636 C92.5056678,69.4539991 92.6854993,69.2265014 92.8155,68.9535 C92.9455006,68.6804986 93.0105,68.3576685 93.0105,67.985 C93.0105,67.4563307 92.8935012,67.0381682 92.6595,66.7305 C92.4254988,66.4228318 92.0268361,66.1736676 91.4635,65.983 L90.3845,65.619 C90.0811651,65.5236662 89.8753339,65.4066674 89.767,65.268 C89.6586661,65.1293326 89.6045,64.9733342 89.6045,64.8 C89.6045,64.5486654 89.6889992,64.3601673 89.858,64.2345 C90.0270008,64.1088327 90.2241655,64.046 90.4495,64.046 C90.7441681,64.046 90.9499994,64.1304992 91.067,64.2995 C91.1840006,64.4685008 91.2425,64.7349982 91.2425,65.099 L92.8545,65.099 L92.8545,64.813 C92.8545,64.1803302 92.6595019,63.6906684 92.2695,63.344 C91.879498,62.9973316 91.2771707,62.824 90.4625,62.824 C90.0031644,62.824 89.6110016,62.8803328 89.286,62.993 C88.9609984,63.1056672 88.694501,63.2573324 88.4865,63.448 C88.278499,63.6386676 88.1268338,63.8618321 88.0315,64.1175 C87.9361662,64.3731679 87.8885,64.6439986 87.8885,64.93 C87.8885,65.4240025 88.0141654,65.8291651 88.2655,66.1455 C88.5168346,66.4618349 88.8894975,66.7066658 89.3835,66.88 L90.6445,67.335 C90.8178342,67.4043337 90.9694993,67.4974994 91.0995,67.6145 C91.2295006,67.7315006 91.2945,67.9026655 91.2945,68.128 C91.2945,68.4053347 91.2121675,68.6133326 91.0475,68.752 C90.8828325,68.8906674 90.6618347,68.96 90.3845,68.96 C90.0811651,68.96 89.8493341,68.8668343 89.689,68.6805 C89.5286659,68.4941657 89.4485,68.2493348 89.4485,67.946 L89.4485,67.712 Z M97.4955,69.181 L97.4955,70 L99.2115,70 L99.2115,63.006 L97.4175,63.006 L97.4175,67.647 C97.4175,68.4183372 97.1011698,68.804 96.4685,68.804 C96.199832,68.804 96.0048339,68.7325007 95.8835,68.5895 C95.7621661,68.4464993 95.7015,68.1930018 95.7015,67.829 L95.7015,63.006 L93.9075,63.006 L93.9075,68.193 C93.9075,68.8950035 94.0613318,69.3954985 94.369,69.6945 C94.6766682,69.9935015 95.1164971,70.143 95.6885,70.143 C96.0785019,70.143 96.4251651,70.0693341 96.7285,69.922 C97.0318348,69.7746659 97.2788324,69.5276684 97.4695,69.181 L97.4955,69.181 Z M100.4075,63.006 L100.4075,70 L102.2015,70 L102.2015,65.398 C102.2015,64.9819979 102.285999,64.6786676 102.455,64.488 C102.624001,64.2973324 102.851499,64.202 103.1375,64.202 C103.388835,64.202 103.568666,64.2799992 103.677,64.436 C103.785334,64.5920008 103.8395,64.8173319 103.8395,65.112 L103.8395,70 L105.6335,70 L105.6335,65.398 C105.6335,64.9819979 105.717999,64.6786676 105.887,64.488 C106.056001,64.2973324 106.283499,64.202 106.5695,64.202 C106.820835,64.202 107.000666,64.2799992 107.109,64.436 C107.217334,64.5920008 107.2715,64.8173319 107.2715,65.112 L107.2715,70 L109.0655,70 L109.0655,64.917 C109.0655,64.2409966 108.924668,63.7231685 108.643,63.3635 C108.361332,63.0038315 107.921503,62.824 107.3235,62.824 C106.898831,62.824 106.532668,62.9171657 106.225,63.1035 C105.917332,63.2898343 105.694167,63.5693315 105.5555,63.942 L105.5295,63.942 C105.434166,63.5779982 105.245668,63.3006676 104.964,63.11 C104.682332,62.9193324 104.333502,62.824 103.9175,62.824 C103.527498,62.824 103.191668,62.8933326 102.91,63.032 C102.628332,63.1706674 102.374834,63.4003317 102.1495,63.721 L102.1235,63.721 L102.1235,63.006 L100.4075,63.006 Z" id="Lorem-ipsum"></path>
            <path d="M62.916,49 L68.388,49 L68.388,22.096 L64.36,22.096 C64.0813319,23.6160076 63.4163386,24.7179966 62.365,25.402 C61.3136614,26.0860034 59.8760091,26.428 58.052,26.428 L57.558,26.428 L57.558,30 L62.916,30 L62.916,49 Z M91.492,49 L91.492,44.744 L81.346,44.744 C81.4726673,44.2373308 81.7639977,43.6356701 82.22,42.939 C82.6760023,42.2423299 83.3093293,41.5266703 84.12,40.792 L87.16,37.98 C87.9200038,37.2959966 88.5659973,36.6310032 89.098,35.985 C89.6300027,35.3389968 90.060665,34.6740034 90.39,33.99 C90.719335,33.3059966 90.9599992,32.5903371 91.112,31.843 C91.2640008,31.0956629 91.34,30.2913376 91.34,29.43 C91.34,27.0739882 90.6813399,25.262673 89.364,23.996 C88.0466601,22.729327 86.0200137,22.096 83.284,22.096 C80.3959856,22.096 78.2806734,22.7673266 76.938,24.11 C75.5953266,25.4526734 74.924,27.3779875 74.924,29.886 L74.924,30.912 L80.168,30.912 C80.168,30.2026631 80.1996664,29.5313365 80.263,28.898 C80.3263336,28.2646635 80.4656656,27.7073357 80.681,27.226 C80.8963344,26.7446643 81.2003314,26.3646681 81.593,26.086 C81.9856686,25.8073319 82.5239966,25.668 83.208,25.668 C84.9813422,25.668 85.868,26.7826555 85.868,29.012 C85.868,29.6960034 85.8363337,30.3039973 85.773,30.836 C85.7096663,31.3680027 85.5766677,31.8619977 85.374,32.318 C85.1713323,32.7740023 84.8863352,33.2299977 84.519,33.686 C84.1516648,34.1420023 83.664003,34.6359973 83.056,35.168 L80.852,37.22 C79.8639951,38.1320046 78.9963371,39.0376622 78.249,39.937 C77.5016629,40.8363378 76.8810025,41.754662 76.387,42.692 C75.8929975,43.629338 75.5256679,44.6173281 75.285,45.656 C75.0443321,46.6946719 74.924,47.8093274 74.924,49 L91.492,49 Z" id="12"></path>
        </g>
    </g>
</svg>
